X:1
T: The Bucks of Oranmore
T: 2nd setting
R:Reel
Q: 232
K:D
M:4/4
L:1/8
|:dB|A2 FB A2 dB|A2 FA BE ((3FED) |A2 FB A2 Bd|eg fd ec dB|
A2 FB A2 dB|((3ABA) FA BE E2|DE FG AF AB|cd ed ec dB|
Ad fd ed fd|Ad fd eB ((3cBA) |Ad fd ed fd|eg fd eB B2|
Ad fd ed fd|Ad fd eB ((3cBA) |ag ab af df|eg fe d2:|
